X:2058
L:1/8
M:4/4
K:C
 .abc ||[M:9/8][K:G] (3TB2 d d2 (A B2 G) | E2 A A2 (B c2 A) | B2 e d2 (A BAG) | D2 G G2 (A B2 A) | 
 B2 d d2 (A B2 G) | E2 A A2 (B c2 A) | B2 d d2 A (BA)G | D2 G G2 (A B2) G |] B2 (d e2 f) Tg3 | 
 (a2 A) A2 B c2 A | B2 (d e2 f) g2 a | g2 (e d2 c) B2 G | B2 (d e2 f) Tg3 | (a2 A) A2 B c2 A | 
 (Bcd) (e2 f) g2 a | (gfe) (d2 c) B2 G |]

